core/img/filetypes/x-office-form.svg

<svg width="16" height="16" viewBox="0 0 16 16" xmlns="http://www.w3.org/2000/svg"><path d="M2.5 1C2.22 1 2 1.22 2 1.5V14.5C2 14.78 2.22 15 2.5 15H13.5C13.78 15 14 14.78 14 14.5V4L11 1H2.5Z" fill="#188079"/><path d="M12 6H4V12H12V6ZM3 5V13H13V5H3Z" clip-rule="evenodd" fill="#fff" fill-opacity=".95" fill-rule="evenodd"/><path d="m8 7v1h-1v2h1v1h-3v-1h1v-2h-1v-1h3z" clip-rule="evenodd" fill="#fff" fill-rule="evenodd"/></svg>

<svg width="16" height="16" viewBox="0 0 16 16" fill="none" xmlns="http://www.w3.org/2000/svg">
<path d="M2.5 1C2.22 1 2 1.22 2 1.5V14.5C2 14.78 2.22 15 2.5 15H13.5C13.78 15 14 14.78 14 14.5V4L11 1H2.5Z" fill="#188079"/>
<path fill-rule="evenodd" clip-rule="evenodd" d="M12 6H4V12H12V6ZM3 5V13H13V5H3Z" fill="white" fill-opacity="0.95"/>
<path fill-rule="evenodd" clip-rule="evenodd" d="M8 7V8L7 8V10H8V11H5V10H6V8L5 8V7H8Z" fill="white"/>
</svg>
